X:223
T:Cobbler's Jig,The. (p)1679.PLFD.223
M:4/4
L:1/4
Q:1/2=100
S:Playford, Dancing Master,6th Ed.,1679
O:England
H:1679.
Z:Chris Partington
K:G
ggfg|efd2|eefd|g2d2:||:gded/c/|B>cdc/B/|
ABcd|B>AGA|B>AGA|B>AGA|B/c/dA>G|G4:|
